flaticon/interaction/smartphone-7.svg

<svg xmlns="http://www.w3.org/2000/svg" width="32" height="32" viewBox="0 0 24 24">
    <path d="M20.96875 17.335938C20.796875 15.691406 19.429688 14.402344 17.789062 14.402344 16.761719 14.402344 15.792969 14.914062 15.195312 15.761719 15.078125 15.742188 14.960938 15.730469 14.84375 15.730469 13.914062 15.730469 13.089844 16.363281 12.816406 17.257812 12.054688 17.710938 11.570312 18.554688 11.570312 19.457031 11.570312 20.859375 12.683594 22 14.054688 22L18.363281 22C18.386719 22 18.410156 22 18.429688 22 18.457031 22 18.480469 22 18.507812 22L20.230469 22C21.519531 22 22.570312 20.925781 22.570312 19.605469 22.570312 18.566406 21.914062 17.65625 20.96875 17.335938zM20.230469 21.203125L18.488281 21.199219 18.421875 21.199219 14.054688 21.203125C13.125 21.203125 12.371094 20.417969 12.371094 19.457031 12.371094 18.792969 12.75 18.175781 13.335938 17.882812L13.511719 17.796875 13.550781 17.609375C13.683594 16.984375 14.226562 16.53125 14.84375 16.53125 14.980469 16.53125 15.117188 16.554688 15.25 16.597656L15.5625 16.703125 15.726562 16.417969C16.164062 15.65625 16.933594 15.203125 17.789062 15.203125 19.09375 15.203125 20.171875 16.300781 20.1875 17.652344L20.191406 17.976562 20.511719 18.039062C21.242188 18.179688 21.769531 18.839844 21.769531 19.605469 21.769531 20.484375 21.078125 21.203125 20.230469 21.203125zM6.628906 2L8.230469 2C8.453125 2 8.628906 1.820312 8.628906 1.601562 8.628906 1.378906 8.453125 1.199219 8.230469 1.199219L6.628906 1.199219C6.410156 1.199219 6.230469 1.378906 6.230469 1.601562 6.230469 1.820312 6.410156 2 6.628906 2zM9.429688 2L9.828125 2C10.050781 2 10.230469 1.820312 10.230469 1.601562 10.230469 1.378906 10.050781 1.199219 9.828125 1.199219L9.429688 1.199219C9.207031 1.199219 9.03125 1.378906 9.03125 1.601562 9.03125 1.820312 9.207031 2 9.429688 2zM6.628906 21.199219C6.628906 22.082031 7.347656 22.800781 8.230469 22.800781 9.113281 22.800781 9.828125 22.082031 9.828125 21.199219 9.828125 20.316406 9.113281 19.601562 8.230469 19.601562 7.347656 19.601562 6.628906 20.316406 6.628906 21.199219zM9.03125 21.199219C9.03125 21.640625 8.671875 22 8.230469 22 7.789062 22 7.429688 21.640625 7.429688 21.199219 7.429688 20.757812 7.789062 20.398438 8.230469 20.398438 8.671875 20.398438 9.03125 20.757812 9.03125 21.199219zM9.03125 21.199219"/>
    <path d="M 10.628906 18.398438 L 2.230469 18.398438 L 2.230469 3.199219 L 14.230469 3.199219 L 14.230469 12 C 14.230469 12.222656 14.410156 12.398438 14.628906 12.398438 C 14.851562 12.398438 15.03125 12.222656 15.03125 12 L 15.03125 1.761719 C 15.03125 0.789062 14.238281 0 13.269531 0 L 3.191406 0 C 2.222656 0 1.429688 0.789062 1.429688 1.761719 L 1.429688 22.238281 C 1.429688 23.210938 2.222656 24 3.191406 24 L 10.230469 24 C 10.453125 24 10.628906 23.820312 10.628906 23.601562 C 10.628906 23.378906 10.453125 23.199219 10.230469 23.199219 L 3.191406 23.199219 C 2.660156 23.199219 2.230469 22.769531 2.230469 22.238281 L 2.230469 19.199219 L 10.628906 19.199219 C 10.851562 19.199219 11.03125 19.019531 11.03125 18.800781 C 11.03125 18.578125 10.851562 18.398438 10.628906 18.398438 Z M 3.191406 0.800781 L 13.269531 0.800781 C 13.796875 0.800781 14.230469 1.230469 14.230469 1.761719 L 14.230469 2.398438 L 2.230469 2.398438 L 2.230469 1.761719 C 2.230469 1.230469 2.660156 0.800781 3.191406 0.800781 Z M 3.191406 0.800781"/>
</svg>

<svg xmlns="http://www.w3.org/2000/svg" width="32" height="32" viewBox="0 0 24 24">
    <path d="M20.969 17.336c-.172-1.645-1.54-2.934-3.18-2.934a3.186 3.186 0 0 0-2.594 1.36 2.138 2.138 0 0 0-.351-.032c-.93 0-1.754.633-2.028 1.528a2.574 2.574 0 0 0-1.246 2.199c0 1.402 1.114 2.543 2.485 2.543H20.23c1.29 0 2.34-1.074 2.34-2.395a2.39 2.39 0 0 0-1.601-2.27zm-.739 3.867l-1.742-.004h-.066l-4.367.004c-.93 0-1.684-.785-1.684-1.746 0-.664.379-1.281.965-1.574l.176-.086.039-.188c.133-.625.676-1.078 1.293-1.078.136 0 .273.024.406.067l.313.105.164-.285c.437-.762 1.207-1.215 2.062-1.215 1.305 0 2.383 1.098 2.398 2.45l.004.324.32.062c.731.14 1.259.8 1.259 1.566 0 .88-.692 1.598-1.54 1.598zm0 0M6.629 2H8.23c.223 0 .399-.18.399-.398a.398.398 0 0 0-.399-.403H6.63a.401.401 0 0 0 0 .801zm0 0M9.43 2h.398a.401.401 0 1 0 0-.8H9.43a.398.398 0 0 0-.399.402c0 .218.176.398.399.398zm0 0M6.629 21.2c0 .882.719 1.6 1.601 1.6a1.6 1.6 0 1 0-1.601-1.6zm2.402 0a.802.802 0 0 1-1.601 0 .802.802 0 0 1 1.601 0zm0 0"/>
    <path d="M10.629 18.398H2.23V3.2h12V12c0 .223.18.398.399.398A.398.398 0 0 0 15.03 12V1.762C15.031.789 14.238 0 13.27 0H3.19C2.223 0 1.43.79 1.43 1.762v20.476c0 .973.793 1.762 1.761 1.762h7.04c.222 0 .398-.18.398-.398a.398.398 0 0 0-.399-.403H3.191a.96.96 0 0 1-.96-.96v-3.04h8.398a.401.401 0 1 0 0-.8zM3.19.801H13.27c.527 0 .96.43.96.96v.637h-12v-.636c0-.532.43-.961.961-.961zm0 0"/>
</svg>
